X:1
T:Consolator, 11.10.11.10
T:Consolator, 11.10.11.10
T:Samuel Webbe, Sr., 1792
T:Public Domain Courtesy of the Cyber Hymnal™
C:Samuel Webbe, Sr., 1792
Z:Public Domain
Z:Courtesy of the Cyber Hymnal™
%%score ( 1 2 ) ( 3 4 )
L:1/8
Q:1/4=110
M:4/4
K:C
V:1 treble 
V:2 treble 
V:3 bass 
V:4 bass 
V:1
 [CG]4 [CE]2 C2 | [CA]3 [CG] [CG]4 | (F3 G) [CA]2 [FB]2 | [Ec]4 [CG]4 | [CE]4 [CE]2 [CE]2 | %5
 [CF]3 [CF] [CA]4 | [B,G]4 [C^F]2 [DF]2 | [DG]8 | [Ec]4 [FB]2 [FA]2 | [EG]3 [DF] [CE]4 | %10
 [Ec]4 (dc) (BA) | ([EG]3 [DF]) [CE]4 | [EG]2 [Ge]2 [Ge]2 [Gc]2 | [Fc]2 [FA]4 [DF]2 | %14
 [CE]4 [B,D]3 C | C8 |] %16
V:2
 x6 C2 | x8 | C4 x4 | x8 | x8 | x8 | x8 | x8 | x8 | x8 | x4 F2 C2 | x8 | x8 | x8 | x8 | C8 |] %16
V:3
 [C,E,]4 [C,G,]2 [C,E,]2 | [C,F,]3 [C,E,] [C,E,]4 | C4 [F,C]2 [D,G,]2 | [C,G,]4 [C,E,]4 | %4
 [C,G,]4 [C,G,]2 [_B,,G,]2 | [A,,F,]3 [A,,F,] [F,,F,]4 | D,4 [D,A,]2 [D,A,]2 | [G,,B,]8 | %8
 [C,G,]4 [C,G,]2 (A,B,) | [C,C]3 [C,G,] [C,G,]4 | [C,G,]4 [F,,A,]2 [A,,F,]2 | (C3 G,) [C,G,]4 | %12
 (G,2 C2) [C,C]2 [E,C]2 | [F,A,]2 [F,C]4 [F,A,]2 | G,4 [G,,F,]3 [C,E,] | [C,E,]8 |] %16
V:4
 x8 | x8 | (A,3 E,) x4 | x8 | x8 | x8 | D,4 x4 | x8 | x6 C,2 | x8 | x8 | C,4 x4 | C,4 x4 | x8 | %14
 G,4 x4 | x8 |] %16

